X:1
T:Title
%%score { 1 | ( 2 3 ) }
L:1/8
Q:1/4=100
M:3/4
K:G
V:1 treble nm="Grand Piano"
V:2 treble 
V:3 treble 
V:1
 DG G2 A2 | BB B2 G2 | [EG][Ec] [Ec]2 [DB]2 | BA A4 | DG G2 A2 | BB B2 G2 | [EG]E D2 GB | %7
w: William~Kirkpatrick * * *|||||||
 AA [B,G]4 | dd d2 B2 | BB B2 G2 | [FA][FA] [FA]2 [Ac]2 | [Ac]B B4 | dd d2 B2 | BB B2 G2 | %14
w: |||||||
 [EG]E D2 GB | AA [B,G]4 |] %16
w: ||
V:2
 [G,B,][G,B,D] [G,B,D]2 [G,CD]2 | [G,DG][G,DG] [G,DG]2[K:bass] [G,B,D]2 | %2
 [C,C][C,G,] [C,G,]2 [G,,G,]2 | [D,G,D][D,F,D] [D,F,D]4 | %4
 [G,B,][K:treble][G,B,D] [G,B,D]2 [G,CD]2 | [G,DG][G,DG] [G,DG]2[K:bass] [G,B,D]2 | z2 z2 .B,2 | %7
 [D,F,C][D,F,C] [G,,G,]4 | [G,B,G][G,B,G] [G,B,G]2 [G,D]2 | [G,DG][G,DG] [G,DG]2[K:bass] [G,B,D]2 | %10
 [D,D][D,D] [D,D]2 [D,D]2 | [G,D][G,DG] [G,DG]4 | [G,B,G][G,B,G] [G,B,G]2 [G,D]2 | %13
 [G,DG][G,DG] [G,DG]2[K:bass] [G,B,D]2 | z2 z2 .B,2 | [D,F,C][D,F,C] [G,,G,]4 |] %16
V:3
 x6 | x4[K:bass] x2 | x6 | x6 | x[K:treble] x5 | x4[K:bass] x2 | %6
 [C,C][C,G,C] [D,G,B,]2 [D,G,]-[D,G,D] | x6 | x6 | x4[K:bass] x2 | x6 | x6 | x6 | x4[K:bass] x2 | %14
 [C,C][C,G,C] [D,G,B,]2 [D,G,]-[D,G,D] | x6 |] %16

